X:158
T:Piper's Chair, The  
B:CRE1.009 (Cathaoir an Phiobaire)
F:file ID: cre.1/158pipers
S:Willie Clancy via Sonny Brogan
M:6/8
Q:160
R:jig
K:G
F|DGG GFD|Dcc cBc|ded cAG|FAG FED|
DGG GFD|Dcc cBc|ded cAF|AGG G2:|
B/c/|gfg agf|d^cd gfg|GFG =fef|ABA AGF|
GBd g2f|d2e fdc|B2d cAF|AGF G2:|

%%%

